rospo-icon-theme-classic-common/16x16/apps/sparkleshare.svg

<svg height="16" viewBox="0 0 16 16" width="16" xmlns="http://www.w3.org/2000/svg"><path d="m0 1.1854286v12.6717144s0 1.142857 1.1428571 1.142857h13.7142859s1.142857 0 1.142857-1.142857v-10.6857144c0-1.1428572-1.142857-1.1428572-1.142857-1.1428572h-5.714286l-2.2857141-2.0285714h-5.7142858s-1.1428571.04257142-1.1428571 1.1854286z" fill="#ee923a"/><path d="m8.0370918 3.9980809c-.441482-.014813-.841609.2419014-.986328.6328123l-.757813 2.341246-2.30664.04297c-.955177.01653-1.350027 1.153858-.587891 1.693358l1.839844 1.3046868-.669922 2.169999c-.276644.855937.75653 1.557395 1.539062 1.044922l1.892579-1.234375 1.894531 1.234375c.7821842.508983 1.8114202-.19069 1.5371092-1.044922l-.667969-2.169999 1.837891-1.3046868c.761436-.538934.36828-1.675151-.585938-1.69336l-2.3085932-.04297-.757813-2.341245c-.13576-.3668119-.49789-.6180529-.912109-.6328113zm-.04883.9804683c-.01259.03401-.0094.01983.01367.01758.02332.0028.02222.01618.0098-.01758h.002l.75586 2.341246c.143112.386088.508229.645003.919922.652344l2.1660152.04101-1.671875 1.185546c-.3562472.252722-.5072802.707401-.3730472 1.1230468l.6367192 2.068437c-.0039-.0022-.000892.0032-.0059 0h-.002l-1.8925792-1.234375c-.331831-.216172-.759965-.216172-1.091796 0l-1.894531 1.234375c-.0064.0041-.0032-.0024-.0078 0l .636718-2.068437c.134232-.4156428-.0168-.8703178-.373039-1.1230408l-1.671875-1.185547 2.167969-.04101c.410974-.0081.775116-.266911.917968-.652344z" fill="#fff"/></svg>

<svg xmlns="http://www.w3.org/2000/svg" width="16" height="16" version="1.1" viewBox="0 0 16 16">
 <path style="fill:#ee923a" d="M 0,1.1854286 0,13.857143 C 0,13.857143 0,15 1.1428571,15 L 14.857143,15 C 14.857143,15 16,15 16,13.857143 L 16,3.1714286 C 16,2.0285714 14.857143,2.0285714 14.857143,2.0285714 l -5.714286,0 L 6.8571429,0 1.1428571,0 C 1.1428571,0 0,0.04257142 0,1.1854286 Z"/>
 <path style="fill:#ffffff" d="m 8.0370918,3.9980809 c -0.441482,-0.014813 -0.841609,0.2419014 -0.986328,0.6328123 l -0.757813,2.341246 -2.30664,0.04297 c -0.955177,0.01653 -1.350027,1.153858 -0.587891,1.693358 l 1.839844,1.3046868 -0.669922,2.169999 c -0.276644,0.855937 0.75653,1.557395 1.539062,1.044922 l 1.892579,-1.234375 1.894531,1.234375 c 0.7821842,0.508983 1.8114202,-0.19069 1.5371092,-1.044922 l -0.667969,-2.169999 1.837891,-1.3046868 c 0.761436,-0.538934 0.36828,-1.675151 -0.585938,-1.69336 L 9.7070138,6.9721372 8.9492008,4.6308922 C 8.8134408,4.2640803 8.4513108,4.0128393 8.0370918,3.9980809 Z m -0.04883,0.9804683 c -0.01259,0.03401 -0.0094,0.01983 0.01367,0.01758 0.02332,0.0028 0.02222,0.01618 0.0098,-0.01758 l 0.002,0 0.75586,2.341246 c 0.143112,0.386088 0.508229,0.645003 0.919922,0.652344 l 2.1660152,0.04101 -1.671875,1.185546 C 9.8274068,9.4514172 9.6763738,9.9060962 9.8106068,10.321742 l 0.6367192,2.068437 c -0.0039,-0.0022 -8.92e-4,0.0032 -0.0059,0 l -0.002,0 -1.8925792,-1.234375 c -0.331831,-0.216172 -0.759965,-0.216172 -1.091796,0 l -1.894531,1.234375 c -0.0064,0.0041 -0.0032,-0.0024 -0.0078,0 l 0.636718,-2.068437 c 0.134232,-0.4156428 -0.0168,-0.8703178 -0.373039,-1.1230408 l -1.671875,-1.185547 2.167969,-0.04101 c 0.410974,-0.0081 0.775116,-0.266911 0.917968,-0.652344 z"/>
</svg>
